!!!OTL: Hopp Marjennchen, S. 10
!!!id: L0003
**kern
*clefG2
*k[f#]
*G:
{4g
=1
4g
4b
4r
=2yy
4g
=3
4g
4f#
4g
=4
4b
4r
4g
=5
4g
4f#
4g}
=6
{2a
4a
=7
4dd
4dd
4dd
=8
2.b
=9
2g}
4r
=10
{4b
4r
4g
=11
4g
4f#
4g
=12
4b
4r
4g
=13
4g
4f#
4g}
=14
{2a
4a
=15
4f#
4e
4f#
=16
2.g
=17
2g}
4r
==
*-
!!!minrhy: 4
!!!meters: 3/4 ]  ZZ[4
!!!cut: Hopp Marjennchen, S. 10
!!!reg: Luxemburg
!!!trd: Die Luxemburger Volkslieder &auml;lterer Zeit, Luxemburg 1904 posth.
!!!rhy1:   X0X  XXX  X0X  XXX
!!!rhy2: X_X  XXX  X_.  X_0
!!!key: L0003  04  G 3/4 ]  ZZ[4
!!!mod: SECHSTONSKALA DUR ?]  AMBITUS[7b
!!!kad: 1111
!!!akz: 3131_2531_3131_2-711_
!!!fot: 'a__b__a__c__
!!!for: 'a__b__a__b__
!!!fok: 'Sd_^d_Sd_Vd_
!! PHRAS[VOLLTAKTIG]
!!!fkt: Kinderlied, Reigenlied, Tanzlied
!! FONTAINE, Ed.:
!! PR[48] 2K[0] 2G[0] 3K[0] 3G[14] 4A[11] 4Ü[0] 5A[2] 6K[0] 6G[0]
!! 7K[0] 7G[0] 8A[0] MEHR[0] SI[27] ABS[44] SR[0] SP[27]
!! ST[12] 2k[0] 2g[0] 3k[0] 3g[14] 4d[9] 4ü[0] 5d[2] 6k[0] 6g[0]
!! 7k[0] 7g[0] 8d[0] mehr[0] si[25] dm[+2] sr[0] sp[25]
!! 1F[9] 2F[80] 3F[11] 4F[0] LF[0] 2P[0] 3P[0] 4P[0] TRI[0] DF[3] AB[45]
!! TF[0] U3K[0] U3[0] U4[2] U4Ü[0] U5[11] U6K[0] U6[0] U7K[0] U7[0]
!! N1[73] N2K[0] N2[0] N3K[0] N3[13] N4[0] N4Ü[0] N5[0] N6K[0] N6[0]
!!!n7k: 0] N7[0] O1[0] O2K[0] O2[0] O3K[0] O3[0] HÖ[0
!!!RNB: symbol: &auml;      = a umlaut  (UTF-8: Å„)
